build/svg/cmd/32/spacing.svg

<?xml version="1.0" encoding="UTF-8" standalone="no"?>
<svg
   xmlns:dc="http://purl.org/dc/elements/1.1/"
   xmlns:cc="http://creativecommons.org/ns#"
   xmlns:rdf="http://www.w3.org/1999/02/22-rdf-syntax-ns#"
   xmlns:svg="http://www.w3.org/2000/svg"
   xmlns="http://www.w3.org/2000/svg"
   xmlns:sodipodi="http://sodipodi.sourceforge.net/DTD/sodipodi-0.dtd"
   xmlns:inkscape="http://www.inkscape.org/namespaces/inkscape"
   viewBox="0 0 32 32"
   version="1.1"
   id="svg4"
   sodipodi:docname="spacing.svg"
   inkscape:export-filename="/home/jupiter007/Libreoffice yaru theme fullcolor/build/cmd/32/spacing.png"
   inkscape:export-xdpi="96"
   inkscape:export-ydpi="96"
   inkscape:version="0.92.5 (2060ec1f9f, 2020-04-08)">
  <metadata
     id="metadata10">
    <rdf:RDF>
      <cc:Work
         rdf:about="">
        <dc:format>image/svg+xml</dc:format>
        <dc:type
           rdf:resource="http://purl.org/dc/dcmitype/StillImage" />
      </cc:Work>
    </rdf:RDF>
  </metadata>
  <defs
     id="defs8" />
  <sodipodi:namedview
     pagecolor="#ffffff"
     bordercolor="#666666"
     borderopacity="1"
     objecttolerance="10"
     gridtolerance="10"
     guidetolerance="10"
     inkscape:pageopacity="0"
     inkscape:pageshadow="2"
     inkscape:window-width="1920"
     inkscape:window-height="1011"
     id="namedview6"
     showgrid="true"
     inkscape:zoom="29.5"
     inkscape:cx="17.741536"
     inkscape:cy="9.9614912"
     inkscape:window-x="1920"
     inkscape:window-y="32"
     inkscape:window-maximized="1"
     inkscape:current-layer="svg4">
    <inkscape:grid
       type="xygrid"
       id="grid817" />
  </sodipodi:namedview>
  <path
     d="m 15,9 v 1 h 3 V 9 Z m 5,-5 v 11 h 1 4 c 1.656854,0 3,-1.343146 3,-3 V 7 C 28,5.3431458 26.656854,4 25,4 h -4 z m 2,2 h 2.666016 C 25.402395,6 26,6.6955778 26,7.5546875 V 11.445312 C 26,12.304422 25.402395,13 24.666016,13 H 22 Z M 4,4 v 11 h 1 5 c 1.65686,-3e-6 3.000007,-1.34315 3,-3 C 12.999643,10.747248 12.220883,9.6266128 11.046875,9.1894531 11.65387,8.6229699 11.998954,7.830265 12,7 12.000007,5.3431501 10.65686,4.0000031 9,4 H 5 Z M 6,6 H 8.6660156 C 9.4023949,6 10,6.5596441 10,7.25 10,7.9403559 9.4023949,8.5 8.6660156,8.5 H 6 Z m 0,4.5 H 9.5722656 C 10.361243,10.5 11,11.059644 11,11.75 11,12.440356 10.361243,13 9.5722656,13 H 6 Z"
     style="fill:#000000;stroke:#000000;opacity:0.6;stroke-width:2;stroke-miterlimit:4;stroke-dasharray:none;stroke-linejoin:round"
     id="path835" />
  <path
     id="path821"
     style="fill:#ffffff"
     d="m 15,9 v 1 h 3 V 9 Z m 5,-5 v 11 h 1 4 c 1.656854,0 3,-1.343146 3,-3 V 7 C 28,5.3431458 26.656854,4 25,4 h -4 z m 2,2 h 2.666016 C 25.402395,6 26,6.6955778 26,7.5546875 V 11.445312 C 26,12.304422 25.402395,13 24.666016,13 H 22 Z M 4,4 v 11 h 1 5 c 1.65686,-3e-6 3.000007,-1.34315 3,-3 C 12.999643,10.747248 12.220883,9.6266128 11.046875,9.1894531 11.65387,8.6229699 11.998954,7.830265 12,7 12.000007,5.3431501 10.65686,4.0000031 9,4 H 5 Z M 6,6 H 8.6660156 C 9.4023949,6 10,6.5596441 10,7.25 10,7.9403559 9.4023949,8.5 8.6660156,8.5 H 6 Z m 0,4.5 H 9.5722656 C 10.361243,10.5 11,11.059644 11,11.75 11,12.440356 10.361243,13 9.5722656,13 H 6 Z" />
  <path
     style="opacity:0.6;fill:#000000;fill-opacity:1;stroke:#000000;stroke-width:2;stroke-linecap:butt;stroke-linejoin:round;stroke-miterlimit:4;stroke-dasharray:none;stroke-opacity:1"
     d="M 10 20 L 4 24.5 L 10 29 L 10 26 L 17 26 L 23 26 L 23 29 L 29 24.5 L 23 20 L 23 23 L 17 23 L 10 23 L 10 20 z "
     id="path839" />
  <path
     style="fill:#aee3f8;fill-opacity:1;stroke:none;stroke-width:1px;stroke-linecap:butt;stroke-linejoin:miter;stroke-opacity:1"
     d="M 10 20 L 4 24.5 L 10 29 L 10 26 L 17 26 L 23 26 L 23 29 L 29 24.5 L 23 20 L 23 23 L 17 23 L 10 23 L 10 20 z "
     id="path841" />
</svg>

<svg xmlns="http://www.w3.org/2000/svg" viewBox="0 0 32 32"><path d="M15 9v1h3V9zm5-5v11h5a3 3 0 003-3V7a3 3 0 00-3-3h-4zm2 2h2.666C25.402 6 26 6.696 26 7.555v3.89c0 .86-.598 1.555-1.334 1.555H22zM4 4v11h6a3 3 0 001.047-5.81A3 3 0 0012 7a3 3 0 00-3-3H5zm2 2h2.666C9.402 6 10 6.56 10 7.25S9.402 8.5 8.666 8.5H6zm0 4.5h3.572c.79 0 1.428.56 1.428 1.25S10.361 13 9.572 13H6z" stroke="#000" opacity=".6" stroke-width="2" stroke-linejoin="round"/><path d="M15 9v1h3V9zm5-5v11h5a3 3 0 003-3V7a3 3 0 00-3-3h-4zm2 2h2.666C25.402 6 26 6.696 26 7.555v3.89c0 .86-.598 1.555-1.334 1.555H22zM4 4v11h6a3 3 0 001.047-5.81A3 3 0 0012 7a3 3 0 00-3-3H5zm2 2h2.666C9.402 6 10 6.56 10 7.25S9.402 8.5 8.666 8.5H6zm0 4.5h3.572c.79 0 1.428.56 1.428 1.25S10.361 13 9.572 13H6z" fill="#fff"/><path d="M10 20l-6 4.5 6 4.5v-3h13v3l6-4.5-6-4.5v3H10v-3z" opacity=".6" stroke="#000" stroke-width="2" stroke-linejoin="round"/><path d="M10 20l-6 4.5 6 4.5v-3h13v3l6-4.5-6-4.5v3H10v-3z" fill="#aee3f8"/></svg>
